X:1
T:Sebastian, 78.87.87.87
T:Sebastian, 78.87.87.87
T:Melody from J. Freylinghausen’s Gesanbuch, 1714
T:Public Domain Courtesy of the Cyber Hymnal™
C:Melody from J. Freylinghausen’s Gesanbuch, 1714
Z:Public Domain
Z:Courtesy of the Cyber Hymnal™
%%score ( 1 2 ) ( 3 4 )
L:1/8
Q:1/4=113
M:4/4
K:F
V:1 treble 
V:2 treble 
V:3 bass 
V:4 bass 
V:1
 [FA]2 G2 [FB]2 AG | [FA]2 [EG]2 F4 | [FA]2 [FA]2 [EG]2 [FA]2 | [GB]2 Bc [FA]2 [EG]2 | %4
 [FA]2 [FA]2 [EG]2 [FA]2 | [GB]2 Bc [FA]2 [EG]2 | [Gc]2 GE [FA]2 GF | [CE]2 [=B,D]2 C4 | %8
 [EG]2 [^FA]2 [GB]2 [GB]2 | [_EA]2 [EG]2 [D^F]2 D2 | [Ad]2 A^F [GB]2 AG | G3 z [DG]4 | %12
 [EG]2 [Gc]2 [FA]2 c2 | BA GF [CE]2 C2 | [EG]2 [FA]2 [FB]2 AG | [FA]2 [EG]2 F4 |] %16
V:2
 x2 G2 F2 x2 | x4 F4 | x8 | x2 G2 x4 | x8 | x2 G2 x4 | x2 G2 x C2 x | x8 | x8 | x8 | %10
 x2 A2 x _E2 x | .D2 (D2 ^F) x3 | x6 FE | F2 D2 x4 | x6 F2 | x4 F4 |] %16
V:3
 [F,C]2 [E,C]2 [D,D]2 [B,,D]2 | [C,C]2 [C,B,]2 [F,A,]4 | [F,C]2 [A,C]2 C2 C2 | %3
 [G,D]2 [E,C]2 [F,C]2 [C,C]2 | [F,C]2 [A,C]2 C2 C2 | [G,D]2 [E,C]2 [F,C]2 [C,C]2 | %6
 [E,C]2 C2 [F,C]2 [A,C]2 | G,2 [G,,F,]2 [C,E,]4 | C2 [A,C]2 [G,D]2 [_E,_E]2 | %9
 [C,_E]2 (CB,) [D,A,]2 [D,^F,]2 | [^F,D]2 D2 [E,D]2 CB, | [D,A,]2 [D,C]2 [G,,B,]4 | %12
 [C,C]2 [E,C]2 [F,C]2 [A,,C]2 | [D,F,]2 B,A, [C,G,]2 [C,E,]2 | C2 [_E,C]2 D2 [F,C][B,,D] | %15
 [E,C]2 [E,B,]2 [F,A,]4 |] %16
V:4
 x8 | x8 | x4 C2 (B,A,) | x8 | x6 (B,A,) | x8 | x2 E,C, x4 | G,2 x6 | C2 x6 | x2 C,2 x4 | %10
 x2 ^F,D, x C,2 x | x8 | x8 | x2 B,,2 x4 | (C,D,) x (D, =E,) x3 | x8 |] %16

